X:1
T:Title
%%score { ( 1 4 ) | ( 2 3 ) }
L:1/8
M:6/8
K:D
V:1 treble nm="Grand Piano"
V:4 treble 
V:2 bass 
V:3 bass 
V:1
 z3 z2[Q:1/4=100] F | F2 F FEF | [FA]2 [EG] [EG]2 [EG] | [EG]2 [EG] [EG]F[CEG] | [GB]3 A2 [DFA] | %5
 [Fd]2 [Fd] [Ac]2 A | B2 B [FA]2 D | G2 G FED |[M:5/8] [CA]-[CA]- [CA]3 |[M:1/8] [CA] | %10
[M:3/4] [CG]2 [CA] F2 A | G2 [CA] [DF]2 [DA] | [Dd]2 [Ec] B2 c | A6 | AB c [Fd]2 [DF] | %15
 [DF][EG] [FA] B2 B | A2 d[FA] FD |[M:5/8] E3 z2 |] %18
V:2
 z3 z2 [D,A,D] | [D,A,D]2 [D,A,D] DC[D,A,D] | [A,,A,]2 [A,,A,] [A,,A,]2 [A,,A,] | %3
 [A,,A,]2 [A,,A,] z ^DA,, | z3 F2 D, | [D,A,]2 [D,A,] [F,A,]2 [F,D] | %6
 [G,DG]2 [G,DG][K:bass] [D,D]2 [D,F,] | [E,A,C]2 [E,A,C] [D,A,D][C,A,][B,,^G,B,] | %8
[M:5/8] [A,,A,]-[A,,A,]- [A,,A,]3 |[M:1/8] [A,,A,] |[M:3/4] [A,,A,]2 [A,,A,] [D,A,D]2 [F,A,D] | %11
 [A,E]2 [A,,A,] [D,A,]2 [D,F,] | [B,,F,]2 [C,A,] [D,F,D]2 [E,^G,D] | [A,C]6 | %14
 [A,C][A,D] [A,E] [D,A,]2 [D,A,] | [D,A,][D,D] [D,D][K:treble] [G,DG]2 [G,DG] | %16
 [F,D]2 [F,A,D][D,A,] [D,A,D][F,A,] |[M:5/8] A,2 z z2 |] %18
V:3
 x6 | z3 .[D,A,]3 | x6 | z3 .[A,,A,]3 | D,6 | x6 | x3[K:bass] x3 | x6 |[M:5/8] x5 |[M:1/8] x | %10
[M:3/4] x6 | x6 | x6 | x6 | x6 | x3[K:treble] x3 | x6 |[M:5/8] C2- [A,,C] [D,F,]2 |] %18
V:4
 x6 | x6 | x6 | x6 | D6 | x6 | x6 | x6 |[M:5/8] x5 |[M:1/8] x |[M:3/4] x6 | x6 | x6 | x6 | x6 | %15
 x6 | x6 |[M:5/8] z2 G, D2 |] %18

